X:81
T:Sweeney's Hornpipe
N:Allan's  # 81  pg 21
N:Trad/Anon
N:CONVERTED FROM NOTEWORTHY COMPOSER  (WWW.NOTEWORTHYSOFTWARE.COM) BY
N:ABC2NWC (HTTP://MEMBERS.AOL.COM/ABACUSMUSIC/), WITH
Z: (INTO NWC) VINCE BRENNAN 2002   (WWW.SOSYOURMOM.COM)
I:abc2nwc
M:4/4
L:1/8
K:A
c3/2B/2| ((3AGA) B3/2A/2 F3/2A/2 E2| ((3FGA) B3/2c/2 d2c3/2d/2|e3/2a/2g3/2a/2 f3/2e/2d3/2c/2| ((3BcB)  ((3AGF) E2c3/2B/2|
 ((3AGA) B3/2A/2 F3/2A/2 E2| ((3FGA) B3/2c/2 d2(c3/2d/2)|e3/2a/2g3/2a/2 f3/2d/2B3/2G/2|A2c2A2:|
(c3/2d/2)| ((3ede) a3/2e/2 f3/2e/2c3/2d/2| ((3ede) a3/2e/2 f2c3/2d/2| ((3ede) a3/2e/2 f3/2e/2d3/2c/2| ((3BcB)  ((3AGF) E2c3/2B/2|
 ((3AGA) B3/2A/2 F3/2A/2 E2| ((3FGA) B3/2c/2 d2c3/2d/2|e3/2a/2g3/2a/2 f3/2d/2B3/2G/2|A2c2A2:|
